X:1
T:Thornbury, 76.76 D
T:Basil Harwood, 1898
T:Thornbury, 76.76 D
T:Public Domain
T:Public Domain
C:Basil Harwood, 1898
Z:Public Domain
%%score 1 { ( 2 4 ) | ( 3 5 ) }
L:1/8
M:none
K:D
V:1 treble 
V:2 treble 
V:4 treble 
V:3 bass 
V:5 bass 
V:1
 A2!f! x8 | F2 C2 D2 B2 | D4 C2 E2 | A2 B2 GF E2 | F6 A2 | F2 C2 D2 B2 | D4 C2 E2 | A2 B2 GF E2 | %8
 D6 F2 | F^G A2 G2 F2 | F2 ^E2 F2 ^G2 | AB c2 F2 ^E2 | F6 A2 | A2 Bc d2 F2 | G2 A2 B2!ff! A2 | %15
 d6 A2 | D4 B4 x2 | A8- x8 | A8 z4 z4 |] %19
V:2
 [DA]2 [DF]2 C2 D2 [B,DB]2 | B,2 [^G,B,]2 [A,C]2 [A,CE]2 | [A,D-A]2 [B,DB]2 GF [G,CE]2 | %3
 [A,-E]2 [A,-C]2 [A,D]2 [A,DA]2 | [B,D]2 C2 D2 [B,DB]2 | A,2 ^G,2 [A,C]2 [A,CE]2 | %6
 [A,D-A]2 [B,DB]2 GF [G,CE]2 | [A,D]6 [DF]2 | F^G [FA]2 [DG]2 A,B, | F2 ^E2 F2 [C^G]2 | %10
 AB [Fc]2 [DF]2 DC | C2 D2 C2 [CEA]2 | [DA]2 Bc [Fd]2 [DF]2 | G2 A2 B2 [CEA]2 | %14
 [DAd-]2 [Acd-][GBd-] [DFAd]2 [A,-C-FA-][A,CEA] | E2 D2 [B,D]2 [CE]2 | [A,DF]2 D2 [B,G]2 FE x2 | %17
 [DFA]8 z4 z4 | x16 |] %19
V:3
!f! [D,F,]2 x8 | [D,A,]2 A,G, [B,,D,F,]2 [G,,G,]2 | [F,,F,]2 [E,,E,-]2 [A,,E,]2 [G,,E,]2 | %3
 [F,,F,]2 [G,,G,]2 [E,,E,]2 [A,,E,]2 | [D,,D,]6 [D,F,]2 | [D,A,]2 A,G, [B,,D,F,]2 [G,,G,]2 | %6
 [F,,F,]2 [B,,E,-]2 [A,,E,]2 [G,,E,]2 | [F,,F,]2 [G,,G,][F,,F,] [E,,E,]2 A,,2 | %8
 G,2 E,2 F,2 [D,A,]2 | [F,A,]2 [A,,C]2 [B,,B,]2 F,^G, | A,2 ^G,B, [F,A,]2 [^E,G,]2 | %11
 F,2 [A,,C]2 CB,A,^G, | A,2 B,2 A,2 [G,A,]2 | F,2 E,2 D,2 [C,A,]2 | %14
 [B,,G,]2 [A,,F,]2 [^G,,E,]2!ff! [A,,E,A,]2 | [F,,D,-A,]2 [G,,D,-B,]2 [A,,D,F,A,]2 [A,,E,G,]2 | %16
 B,,2 A,,2 [G,,-D,G,-]2 [G,,E,G,]2 x2 | F,2 F,2 E,2 A,G, x8 | x16 |] %19
V:4
 x10 | D4 x4 | x4 [B,D]2 x2 | F6 x2 | x8 | D4 x4 | x4 [B,D]2 x2 | x8 | C2 x3 F2 x | C4 x4 | %10
 C2 x3 ^E2 x | F6 x2 | x2 G2 x4 | D6 x2 | D2- x6 | D4 B4 | A8- C2 | x16 | x16 |] %19
V:5
 x10 | x2 [A,,E,]2 x4 | x8 | x8 | x8 | x2 [A,,E,]2 x4 | x8 | x8 | [D,,D,]6 x2 | x6 D,2 | C,4 x4 | %11
 F,2 B,,2 C,2 x2 | F,6 x2 | A,6 x2 | x8 | x8 | [D,F,]4 x6 | [D,,D,]8 A,2 x6 | x16 |] %19

